X:1
T:Saitama, 10.10.12.10
T:Saitama, 10.10.12.10
T:Hubert Platt Main, 1884
T:Public Domain Courtesy of the Cyber Hymnal™
C:Hubert Platt Main, 1884
Z:Public Domain
Z:Courtesy of the Cyber Hymnal™
%%score ( 1 2 ) ( 3 4 )
L:1/8
Q:1/4=100
M:4/4
K:Ab
V:1 treble 
V:2 treble 
V:3 bass 
V:4 bass 
V:1
 c4 (BA) (GF) | [DE]3 [DF] [CE]4 | [Ec]4 [=DB]2 [FA]2 | [EG]6 z2 | [CA]4 (dc) (BA) | %5
 [FG]3 [F=A] [=EG]4 | A4 [=DB]2 [DB]2 | [EB]6 z2 | c4 (BA) (GF) | [DE]3 [DF] [CE]4 | c4 (BA) (GF) | %11
 [DE]3 [DF] [CE]4 | e4 ([Fd][Ec]) (BA) | [EG]3 [DG] [CA]2 (cB) | [EA]4 z2 x4 | [CA]6 z2 |] %16
V:2
 (E2 C2) D2 D2 | x8 | x8 | x8 | x4 E2 F2 | x8 | (F2 E2) x4 | x8 | (E2 C2) D2 D2 | x8 | %10
 (E2 C2) D2 D2 | x8 | (A2 _G2) =D2 x2 | x6 F2 | x4 G4 D2 | x8 |] %16
V:3
 (A,2 E,2) [A,,G,]2 (B,A,) | [B,,G,]2 [G,,E,]2 [A,,E,]4 | E,2 A,2 [B,,F,]2 [=D,B,]2 | [E,B,]6 z2 | %4
 [F,A,]4 ([G,B,] A,)(B,=B,) | [=D,=B,]3 [G,,B,] [C,C]4 | [F,C]4 [B,,A,]2 [B,,F,]2 | [E,G,]6 z2 | %8
 (A,2 E,2) [A,,F,]2 (B,A,) | [B,,G,]2 [E,G,]2 A,4 | (A,2 E,2) [A,,F,]2 (B,A,) | %11
 [B,,G,]2 [E,G,]2 A,4 | ([A,,C]2 [C,A,]2) A,2 (A,B,) | [E,B,]3 [=E,B,] [F,A,]2 (=ED) | %14
 [E,C]4 [E,B,]4 x2 | [A,,A,]6 z2 |] %16
V:4
 A,,4 A,,2 x2 | x8 | A,,4 x4 | x8 | x5 A, D,2 | x8 | x8 | x8 | A,,4 A,,2 x2 | x4 A,4 | %10
 A,,4 A,,2 x2 | x4 A,4 | x4 D,E, F,2 | x6 D,2 | x10 | x8 |] %16

